X: 10551
T: SAUNDERS BRANE
Q: "Strathspey."
%R: strathspey
B: W. Hamilton "Universal Tune-Book" Vol. 1 Glasgow 1844 p.55 #1
S: http://imslp.org/wiki/Hamilton's_Universal_Tune-Book_(Various)
Z: 2016 John Chambers <jc:trillian.mit.edu>
M: C|
L: 1/8
K: D
% - - - - - - - - - - - - - - - - - - - - - - - - -
A |\
FADA FADE/F/ | GCEG CGEG |\
FADA FADg | f>d f/e/d/^c/ dDD :|\
fg |\
adfa dafa | gceg cgef/g/ |
adfa dafa | gc a/g/f/e/ fddf/g/ |\
adfa daf>a | gceg cgef/g/ |\
a>fg>e f>de>c | A>c A/G/F/E/ FDD |]
% - - - - - - - - - - - - - - - - - - - - - - - - -

%%sep 1 1 500
%%sep 1 1 500

